X:37
% %NRChange 2010-02-05
T:Katherine's Mysterious Tune
L:1/8
Q:1/8=150
M:4/4
Z:mheiman@northernroots.org
K: DDor
%P:A
A/^c/ | d3/^c/ de f2 f2 | e/f/e/d/ ^c/d/e/^c/ A2 A
e/g/ | f3/e/ fg a2 a2 | g/a/g/e/ f/g/f/d/ e2 e :|
%P: B
e/g/ | f3/e/ fg a2 a2 | g/a/g/e/ c/B/c/e/  g f/g/ a3/g/ |
fd d3/f/ e/f/e/^c/ A^c | ed ^c/d/e/^c/ d2 d :|

